X:10
T:Troisime suytte de Bransles
C:Dutertre
R:Branle simple
M:C|
L:1/8
K:Dm
%%staves [1 2 3 4]
T:Bransle 1
%%continueall 0
V:1
d2dd c3c | BABG A2_e2 |1 _e2e2 d4 :|2 _e2e2 ddcd |: Bdcd BdcB |
AGF_E D2G2 | F2_E2 Ddcd | Bdcd BdcB | AGF_E D2G2 |1 G2^F2 Gdcd :|2 G2^F2 G4 |]
V:2
b2bb a3g | gfde f2g2 | g2g2 ^f4 :| g2g2 faaa |: gaaa gfag | 
f2d2 f2_e2 | d2c2 Aaaa | gaaa gfag | f2d2 f2_e2 | _e2d2 Baaa :| _e2d2 B4 |]
V:3
g2gf f3_e | d2B2 c2c2 | c2c2 A4 :| c2c2 Afff |: dfff ddfd |
d2A2 B2G2 | B2G2 Ffff | dfff ddfd | d2A2 B3G | c2A2 Gfff :| c2A2 G4 |]
V:4
G,2G,B, F,3C, | G,D,G,G, F,2C,2 | C,2C,2 D,4 :| C,2C,2 D,D,F,D, |: G,D,F,D, G,B,F,G, |
D,3C, B,,2_E,2 | B,,2C,2 D,D,F,D, | G,D,F,D, G,B,F,G, | D,3C, B,,2_E,2 | C,2D,2 G,D,F,D, :| C,2D,2 G,4 |]
T:Bransle 2
V:1
B3c d2d2 | _e2e2 d2c2 | c2=B2 c4 :: A3B c2B2 | A2G2 F2B2 | G2B2 A2G2 | A3B c2B2 | A2G2 F2G2 | G2^F2 G4 :|
V:2
g2g2 g2g2 | g2e2 a2g2 | f2d2 e4 :: f4 f2d2 | f2e2 d2d2 | _e2f2 f2=e2 | f4 f2d2 | f2_e2 d2c2 | d2d2 d4 :|
V:3
d3c B2B2 | c2c2 f2_e2 | d4 c4 :: c3B A2B2 | c2c2 A2B2 | B2d2 c2c2 | c3B A2B2 | c2c2 A2G2 | A2A2 G4 :|
V:4
G,4 G,2G,2 | C,2C,2 D,2_E,2 | F,2G,2 C,4 :: F,4 F,2G,2 | F,2C,2 D,2B,,2 | _E,2B,,2 F,2C,2 | F,4 F,2G,2 | F,2C,2 D,2_E,2 | D,2D,2 G,4 :|
T:Bransle 3
%%continueall 1
V:1
d3c Bcde | f2f2 e2d2 | d2^c2 d4 :: A3G FGAB | c2A2 B2G2 | G3F _E2D2 | A3G FGAB | c2A2 B2G2 | G2^F2G4 :|
V:2
g3g g2a2 | agab c'2b2 | b2a2 f4 :: f2c2 d2d2 | e2f2 f2_e2 | _e2e2 g2f2 | f2c2 d2d2 | e2f2 f2_e2 | _e2d2 B4 :|
V:3
B3c def2 | d2d2 c2f2 | g2e2 d4 :: c2A2 A2F2 | G2A2 F2G2 | B2B2 c2A2 | c2A2 A2F2 | G2A2 F2G2 | A2A2 G4 :|
V:4
G,3C, G,2D,2 | D,E,F,G, A,2B,2 | G,2A,2 D,4 :: F,3E, D,2D,2 | C,2F,2 D,2_E,2 | _E,2E,2 C,2D,2 | F,3E, D,2D,2 | C,2F,2 B,,2_E,2 | C,2D,2 G,4 :|
T:Bransle 4 
%%continueall 0
V:1
d2dc B2A2 | G2F2 EFGA | GFED E2D2 | d2dc B2A2 | G2F2 EDG2 | G2^F2 G4 :: 
AGAB c2c2 | defe d2c2 | d2B2 c2c2 | AGAB c2c2 | defe d2c2 | BAA^G A4 :|
V:2
g3g g2f2 | e2c2 c2e2 | e2d2 ^c2d2 | g3g g2f2 | e2c2 c2c2 | d4 d4 :: f2f2 g2g2 | g2f2 g2e2 | f2d2 e2e2 | f2f2 g2g2 | g2f2 g2e2 | fde2 c4 :|
V:3
B3c d2d2 | B2A2 G2c2 | c2A2 A2A2 | B3c d2d2 | B2A2 G2G2 | A4 G4 :: cBcd e2e2 | d3c B2c2 | d4 c4 |  cBcd e2e2 | d3c B2c2 | dAB2 A4 :|
V:4
G,3C, G,2D,2 | E,2F,2 C,2C,2 | C,2D,2 A,,2D,2 | G,3C, G,2D,2 | E,2F,2 C,2E,2 | D,4 G,4 :: F,2F,2 C,2C,2 | G,2D,2 G,2A,2 | F,2G,2 C,2C,2 | F,2F,2 C,2C,2 | G,2D,2 G,2A,2 | D,F,E,2 A,,4 :|
